_includes/icon-heart.svg

<?xml version="1.0" encoding="UTF-8"?>
<svg xmlns="http://www.w3.org/2000/svg" xmlns:xlink="http://www.w3.org/1999/xlink" width="16pt" height="16pt" viewBox="0 0 16 16" version="1.1">
<g id="surface1">
<path style=" stroke:none;fill-rule:nonzero;fill:rgb(0%,0%,0%);fill-opacity:1;" d="M 1.46875 9.4375 L 0.46875 9.4375 C 0.210938 9.4375 0 9.648438 0 9.90625 L 0 15.53125 C 0 15.789062 0.210938 16 0.46875 16 L 1.46875 16 C 2.246094 16 2.875 15.371094 2.875 14.59375 L 2.875 10.84375 C 2.875 10.066406 2.246094 9.4375 1.46875 9.4375 Z M 1.46875 9.4375 "/>
<path style=" stroke:none;fill-rule:nonzero;fill:rgb(0%,0%,0%);fill-opacity:1;" d="M 15.859375 10.347656 C 15.804688 10.253906 15.730469 10.179688 15.644531 10.113281 C 15.300781 9.808594 14.71875 9.839844 14.378906 10.207031 L 12.25 12.664062 L 12.1875 12.738281 C 11.921875 13.027344 11.546875 13.1875 11.15625 13.1875 L 7.515625 13.1875 C 7.253906 13.1875 7.046875 12.980469 7.046875 12.71875 C 7.046875 12.457031 7.253906 12.25 7.515625 12.25 L 10.375 12.25 C 10.890625 12.25 11.3125 11.828125 11.3125 11.3125 L 11.3125 11.304688 C 11.304688 10.789062 10.890625 10.375 10.375 10.375 L 8.679688 10.375 C 8.398438 10.375 8.097656 10.273438 7.855469 10.066406 C 6.710938 9.0625 5.042969 8.996094 3.8125 9.851562 L 3.8125 15.617188 C 4.742188 15.867188 5.699219 16 6.664062 16 L 10.84375 16 C 11.875 16 12.851562 15.511719 13.46875 14.6875 L 15.71875 11.6875 C 16.046875 11.257812 16.074219 10.664062 15.859375 10.347656 Z M 15.859375 10.347656 "/>
<path style=" stroke:none;fill-rule:nonzero;fill:rgb(0%,0%,0%);fill-opacity:1;" d="M 12.570312 0.90625 C 12.050781 0.320312 11.332031 0 10.542969 0 C 9.660156 0 8.898438 0.417969 8.335938 1.203125 C 8.292969 1.261719 8.253906 1.320312 8.214844 1.378906 C 8.179688 1.320312 8.140625 1.261719 8.097656 1.203125 C 7.535156 0.417969 6.769531 0 5.890625 0 C 5.101562 0 4.378906 0.320312 3.859375 0.90625 C 3.367188 1.460938 3.09375 2.203125 3.09375 2.992188 C 3.09375 3.855469 3.429688 4.648438 4.144531 5.492188 C 4.769531 6.226562 5.667969 6.984375 6.707031 7.859375 C 7.089844 8.183594 7.488281 8.519531 7.910156 8.886719 C 7.996094 8.960938 8.105469 9 8.214844 9 C 8.324219 9 8.433594 8.960938 8.523438 8.886719 C 8.945312 8.519531 9.339844 8.183594 9.726562 7.863281 C 10.390625 7.296875 10.96875 6.8125 11.46875 6.339844 C 12.4375 5.425781 13.335938 4.386719 13.335938 2.992188 C 13.335938 2.203125 13.0625 1.460938 12.570312 0.90625 Z M 12.570312 0.90625 "/>
</g>
</svg>

<svg xmlns="http://www.w3.org/2000/svg" viewBox="0 0 16 16"><path d="M1.469 9.438h-1A.47.47 0 000 9.905v5.625c0 .258.21.469.469.469h1c.777 0 1.406-.629 1.406-1.406v-3.75c0-.778-.629-1.406-1.406-1.406zm0 0M15.86 10.348a.82.82 0 00-.215-.235c-.344-.304-.926-.273-1.266.094l-2.129 2.457-.063.074c-.265.29-.64.45-1.03.45H7.515a.465.465 0 01-.47-.47c0-.261.208-.468.47-.468h2.859a.94.94 0 00.938-.938v-.007a.939.939 0 00-.938-.93H8.68c-.282 0-.582-.102-.825-.309a3.284 3.284 0 00-4.043-.214v5.765c.93.25 1.887.383 2.852.383h4.18a3.286 3.286 0 002.625-1.313l2.25-3c.328-.43.355-1.023.14-1.34zm0 0M12.57.906A2.67 2.67 0 0010.543 0C9.66 0 8.898.418 8.336 1.203a4.72 4.72 0 00-.121.176 2.29 2.29 0 00-.117-.176C7.535.418 6.77 0 5.89 0 5.1 0 4.379.32 3.859.906a3.133 3.133 0 00-.765 2.086c0 .863.336 1.656 1.05 2.5.626.735 1.524 1.492 2.563 2.367.383.325.781.66 1.203 1.028a.468.468 0 00.613 0c.422-.367.817-.703 1.204-1.024.664-.566 1.242-1.05 1.742-1.523.969-.914 1.867-1.953 1.867-3.348 0-.789-.274-1.531-.766-2.086zm0 0"/></svg>
